movie-open-settings-outline.svg

<svg fill="currentColor" viewBox="0 0 24 24"><path d="M19.65 4.5 16.91.96l3.93-.78.78 3.92zm-2.94.57-2.74-3.53-1.97.39 2.75 3.53zm-4.9.98L9.07 2.5l-1.97.41 2.75 3.53zM4.16 3.5l-.98.19a1.995 1.995 0 0 0-1.57 2.35L2 8l4.9-.97zM22 8v10c0 1.11-.89 2-2 2H4a2 2 0 0 1-2-2V8zm-2 2H4v8h16zM7 24h2v-2H7zm8 0h2v-2h-2zm-4 0h2v-2h-2z"/></svg>

<svg  viewBox="0 0 24 24" fill="currentColor"><path  d="M19.65 4.5L16.91 .96L20.84 .18L21.62 4.1L19.65 4.5M16.71 5.07L13.97 1.54L12 1.93L14.75 5.46L16.71 5.07M11.81 6.05L9.07 2.5L7.1 2.91L9.85 6.44L11.81 6.05M4.16 3.5L3.18 3.69C2.1 3.9 1.39 4.96 1.61 6.04L2 8L6.9 7.03L4.16 3.5M22 8V18C22 19.11 21.11 20 20 20H4C2.9 20 2 19.11 2 18V8H22M20 10H4V18H20V10M7 24H9V22H7V24M15 24H17V22H15V24M11 24H13V22H11V24Z"/></svg>
